icons/more-2-line.svg

<svg width="24" height="24" fill="none" xmlns="http://www.w3.org/2000/svg"><g clip-path="url(#a)"><path d="M12 3c-.825 0-1.5.675-1.5 1.5S11.175 6 12 6s1.5-.675 1.5-1.5S12.825 3 12 3Zm0 15c-.825 0-1.5.675-1.5 1.5S11.175 21 12 21s1.5-.675 1.5-1.5S12.825 18 12 18Zm0-7.5c-.825 0-1.5.675-1.5 1.5s.675 1.5 1.5 1.5 1.5-.675 1.5-1.5-.675-1.5-1.5-1.5Z" /></g><defs><clipPath id="a"><path fill="#fff" d="M0 0h24v24H0z"/></clipPath></defs></svg>

<svg xmlns="http://www.w3.org/2000/svg" width="24" height="24" fill="none"><g clip-path="url(#a)"><g><path fill="#121212" d="M12 3C11.175 3 10.5 3.675 10.5 4.5C10.5 5.325 11.175 6 12 6C12.825 6 13.5 5.325 13.5 4.5C13.5 3.675 12.825 3 12 3ZM12 18C11.175 18 10.5 18.675 10.5 19.5C10.5 20.325 11.175 21 12 21C12.825 21 13.5 20.325 13.5 19.5C13.5 18.675 12.825 18 12 18ZM12 10.5C11.175 10.5 10.5 11.175 10.5 12C10.5 12.825 11.175 13.5 12 13.5C12.825 13.5 13.5 12.825 13.5 12C13.5 11.175 12.825 10.5 12 10.5Z"/></g></g><defs><clipPath id="a"><rect width="24" height="24" fill="white"/></clipPath></defs></svg>
